assets/eject-fill.svg

<svg xmlns="http://www.w3.org/2000/svg" fill="none" viewBox="0 0 30 30">
  <path fill="#2A2238" stroke="#2A2238" stroke-linecap="square" stroke-width="1.5" d="M28.4 23.6383H1.6c-.33137 0-.6.2686-.6.6V28.4c0 .3314.26863.6.6.6h26.8c.3314 0 .6-.2686.6-.6v-4.1617c0-.3314-.2686-.6-.6-.6ZM1.47903 19.4241 14.948 1.43606c.1619-.21617.487-.21313.6448.00603L28.3156 19.1133c.2858.3968.0021.9505-.4869.9505H1.79922c-.32948 0-.51767-.376-.32019-.6397Z"/>
</svg>

<svg width="30" height="30" viewBox="0 0 30 30" fill="none" xmlns="http://www.w3.org/2000/svg">
<path d="M28.4 23.6383H1.6C1.26863 23.6383 1 23.9069 1 24.2383V28.4C1 28.7314 1.26863 29 1.6 29H28.4C28.7314 29 29 28.7314 29 28.4V24.2383C29 23.9069 28.7314 23.6383 28.4 23.6383Z" fill="#2A2238" stroke="#2A2238" stroke-width="1.5" stroke-linecap="square"/>
<path d="M1.47903 19.4241L14.948 1.43606C15.1099 1.21989 15.435 1.22293 15.5928 1.44209L28.3156 19.1133C28.6014 19.5101 28.3177 20.0638 27.8287 20.0638H1.79922C1.46974 20.0638 1.28155 19.6878 1.47903 19.4241Z" fill="#2A2238" stroke="#2A2238" stroke-width="1.5" stroke-linecap="square"/>
</svg>
